client/src/assets/images/global/cog.svg

<svg width="24px" height="24px" viewBox="0 0 24 24" version="1.1" xmlns="http://www.w3.org/2000/svg" xmlns:xlink="http://www.w3.org/1999/xlink">
  <g stroke="none" stroke-width="1" fill="none" fill-rule="evenodd" stroke-linejoin="round">
    <g transform="translate(-796.000000, -159.000000)" stroke="#000000" stroke-width="2">
      <g id="38" transform="translate(796.000000, 159.000000)">
        <path d="M7.20852293,4.3800958 C8.05442158,3.84706631 8.99528987,3.45099725 10,3.22301642 L10,1.99980749 C10,1.44762906 10.4433532,1 11.0093689,1 L12.9906311,1 C13.5480902,1 14,1.44371665 14,1.99980749 L14,3.22301642 C15.0047101,3.45099725 15.9455784,3.84706631 16.7914771,4.3800958 L17.6569904,3.5145825 C18.0474395,3.12413339 18.6774591,3.12110988 19.0776926,3.52134344 L20.4786566,4.92230738 C20.8728396,5.31649045 20.8786331,5.94979402 20.4854175,6.34300963 L19.6199042,7.20852293 C20.1529337,8.05442158 20.5490027,8.99528987 20.7769836,10 L22.0001925,10 C22.5523709,10 23,10.4433532 23,11.0093689 L23,12.9906311 C23,13.5480902 22.5562834,14 22.0001925,14 L20.7769836,14 C20.5490027,15.0047101 20.1529337,15.9455784 19.6199042,16.7914771 L20.4854175,17.6569904 C20.8758666,18.0474395 20.8788901,18.6774591 20.4786566,19.0776926 L19.0776926,20.4786566 C18.6835095,20.8728396 18.050206,20.8786331 17.6569904,20.4854175 L16.7914771,19.6199042 C15.9455784,20.1529337 15.0047101,20.5490027 14,20.7769836 L14,22.0001925 C14,22.5523709 13.5566468,23 12.9906311,23 L11.0093689,23 C10.4519098,23 10,22.5562834 10,22.0001925 L10,20.7769836 C8.99528987,20.5490027 8.05442158,20.1529337 7.20852293,19.6199042 L6.34300963,20.4854175 C5.95256051,20.8758666 5.32254093,20.8788901 4.92230738,20.4786566 L3.52134344,19.0776926 C3.12716036,18.6835095 3.12136689,18.050206 3.5145825,17.6569904 L4.3800958,16.7914771 C3.84706631,15.9455784 3.45099725,15.0047101 3.22301642,14 L1.99980749,14 C1.44762906,14 1,13.5566468 1,12.9906311 L1,11.0093689 C1,10.4519098 1.44371665,10 1.99980749,10 L3.22301642,10 C3.45099725,8.99528987 3.84706631,8.05442158 4.3800958,7.20852293 L3.5145825,6.34300963 C3.12413339,5.95256051 3.12110988,5.32254093 3.52134344,4.92230738 L4.92230738,3.52134344 C5.31649045,3.12716036 5.94979402,3.12136689 6.34300963,3.5145825 L7.20852293,4.3800958 Z M12,16 C14.209139,16 16,14.209139 16,12 C16,9.790861 14.209139,8 12,8 C9.790861,8 8,9.790861 8,12 C8,14.209139 9.790861,16 12,16 Z" id="Combined-Shape"/>
      </g>
    </g>
  </g>
</svg>

<svg xmlns="http://www.w3.org/2000/svg" viewBox="0 0 24 24">
  <defs/>
  <path fill="none" fill-rule="evenodd" stroke="#000" stroke-linejoin="round" stroke-width="2" d="M7.2 4.4A9 9 0 0110 3.2V2c0-.6.4-1 1-1h2c.5 0 1 .4 1 1v1.2c1 .3 2 .6 2.8 1.2l.9-.9a1 1 0 011.4 0L20.5 5c.4.4.4 1 0 1.4l-.9 1a9 9 0 011.2 2.7H22c.6 0 1 .4 1 1v2c0 .5-.4 1-1 1h-1.2a9 9 0 01-1.2 2.8l.9.9c.4.3.4 1 0 1.4L19 20.5a1 1 0 01-1.4 0l-1-.9a9 9 0 01-2.7 1.2V22c0 .6-.4 1-1 1h-2a1 1 0 01-1-1v-1.2a9 9 0 01-2.8-1.2l-.9.9a1 1 0 01-1.4 0L3.5 19a1 1 0 010-1.4l.9-1A9 9 0 013.2 14H2a1 1 0 01-1-1v-2c0-.5.4-1 1-1h1.2c.3-1 .6-2 1.2-2.8l-.9-.9a1 1 0 010-1.4L5 3.5a1 1 0 011.4 0l1 .9zM12 16a4 4 0 100-8 4 4 0 000 8z"/>
</svg>
